X:155
T:Larry Redican's 1
C:Larry Redican
R:Reel
O:Ireland
P:APB The Chieftains
S:Chieftains 9, Trk. 8
D:Chieftains 9, Trk. 8
Z:Transcription, chords:Mike Long
M:C|
L:1/8
K:G
GB|\
"G"AGEG DGB,D|"G"BAGA "Em"BedB|"G"AGED B,DA,D|"G"B,A,~A,2 "Em"B,EED|\
"Em"E2 (3(DEF) "G"GEDB,|"D"D2B,E "G"DG,B,D|
"C"EDEG "G"DEGA|"D"(3(Bcd) AF "G"~G2:|\
|:Bc|\
"G"dG~G2 EGDC|{C}B,G,B,D GBdg|"C"ec~c2 AG (3(FGA)|
"D"DFAd fed^c|\
"G"dG~G2 "C"EGDC|{C}"G"B,G,B,D GBdg|"C"ec~c2 efge|\
[1 "D"dB{d}BA "G"GG:|[2 "D"dcBA "G"G2|]
